X:110
T:The Cranberry Picker's Reel
R:reel
C:Bruce Osborne - July 2002
Z:bosborne@kos.net
M:2/4
L:1/8
K:Fmaj
C/B,/|A,C FA|d/c/A/d/ c/A/F/c/|G/F/G/A/ B/G/E/G/|F/E/F/G/ A/F/C/B,/|
A,C FA|d/c/A/d/ c/A/F/c/|G/F/G/A/ B/G/E/G/|F/E/F/G/ F:|
|:A/B/|c/F/F/F/ d/F/F/F/|c/F/F/G/ AG/F/|E/C/C/C/ G/C/C/C/|E/C/C/D/ EA/B/|
c/F/F/F/ d/F/F/F/|c/F/F/G/ AG/F/|E/C/C/C/ G/C/C/D/|E/C/D/E/ F:|
